illustrations/assets/Media/il_axis_media_dark.svg

<svg xmlns="http://www.w3.org/2000/svg" width="231" height="160" fill="none" viewBox="0 0 231 160">
  <path fill="#242424" d="M115.612 147.8c37.749 0 68.351-30.624 68.351-68.4 0-37.7763-30.602-68.4-68.351-68.4-37.749 0-68.3507 30.6237-68.3507 68.4 0 37.776 30.6017 68.4 68.3507 68.4Z"/>
  <path fill="url(#paint0_linear_3831_4976)" d="M178.664 38.6464v83.6286c0 2.948-2.42 5.376-5.359 5.376H58.9784c-2.9388 0-5.3589-2.428-5.3589-5.376V38.6464c0-2.9485 2.4201-5.3766 5.3589-5.3766H173.305c2.939 0 5.359 2.4281 5.359 5.3766Z"/>
  <path fill="url(#paint1_linear_3831_4976)" d="M139.639 73.4594c-.665-2.458-2.216-4.5807-4.433-5.9214-2.438-1.4524-4.987-1.6759-7.758-1.8993-4.876-.5587-9.863-.6704-14.85-.4469-4.433.1117-9.531-.1118-13.6316 1.7876-5.8737 2.5696-6.6495 8.2676-6.8711 14.4124-.2217 4.5807-.2217 10.0552.9974 14.5242.9974 3.5752 3.768 6.368 7.4253 7.15 4.655 1.118 14.629 1.341 19.505 1.229h1.33c3.879-.111 7.979-.111 11.526-1.452 2.992-1.006 4.765-2.793 5.874-5.0277 1.329-2.6814 1.662-6.0331 1.773-9.72.443-4.8042.332-10.2787-.887-14.6359Z"/>
  <path fill="#656565" d="M112.131 78.3001c0-1.4741.745-1.9655 1.955-1.1793 3.257 2.0638 6.607 4.2259 9.864 6.2896 1.209.7862 1.209 1.6707 0 2.5552-3.257 2.0638-6.514 4.2258-9.771 6.2896-1.303.7862-1.955.3931-2.048-.9828V78.3001Z"/>
  <path fill="#3A3A3A" d="M178.664 39.0681v3.8815H53.6195v-3.8815c0-2.9326 2.4202-5.3478 5.3589-5.3478H173.306c2.938 0 5.358 2.4152 5.358 5.3478Z"/>
  <path fill="#CCC" d="M58.8663 40.0168c.9045 0 1.6377-.7337 1.6377-1.6388s-.7332-1.6389-1.6377-1.6389-1.6377.7338-1.6377 1.6389.7332 1.6388 1.6377 1.6388Z"/>
  <path fill="#5F5F5F" d="M63.9516 40.0168c.9045 0 1.6377-.7337 1.6377-1.6388s-.7332-1.6389-1.6377-1.6389-1.6377.7338-1.6377 1.6389.7332 1.6388 1.6377 1.6388Z" opacity=".6"/>
  <path fill="#5C5C5C" d="M69.1234 40.0168c.9044 0 1.6376-.7337 1.6376-1.6388s-.7332-1.6389-1.6376-1.6389c-.9045 0-1.6377.7338-1.6377 1.6389s.7332 1.6388 1.6377 1.6388Z" opacity=".4"/>
  <defs>
    <linearGradient id="paint0_linear_3831_4976" x1="116.101" x2="116.101" y1="31.0866" y2="128.669" gradientUnits="userSpaceOnUse">
      <stop stop-color="#5C5C5C"/>
      <stop offset=".9964" stop-color="#4D4D4D"/>
    </linearGradient>
    <linearGradient id="paint1_linear_3831_4976" x1="116.373" x2="116.373" y1="65.0839" y2="104.321" gradientUnits="userSpaceOnUse">
      <stop stop-color="#FAFAFA"/>
      <stop offset=".8281" stop-color="#F5F2EC"/>
    </linearGradient>
  </defs>
</svg>

<svg width="231" height="160" viewBox="0 0 231 160" fill="none" xmlns="http://www.w3.org/2000/svg">
<path d="M115.612 147.8C153.361 147.8 183.963 117.176 183.963 79.4C183.963 41.6237 153.361 11 115.612 11C77.863 11 47.2613 41.6237 47.2613 79.4C47.2613 117.176 77.863 147.8 115.612 147.8Z" fill="#242424"/>
<path d="M178.664 38.6464V122.275C178.664 125.223 176.244 127.651 173.305 127.651H58.9784C56.0396 127.651 53.6195 125.223 53.6195 122.275V38.6464C53.6195 35.6979 56.0396 33.2698 58.9784 33.2698H173.305C176.244 33.2698 178.664 35.6979 178.664 38.6464Z" fill="url(#paint0_linear_3831_4976)"/>
<path d="M139.639 73.4595C138.974 71.0016 137.423 68.8788 135.206 67.5381C132.768 66.0857 130.219 65.8622 127.448 65.6388C122.572 65.0802 117.585 64.9684 112.598 65.1919C108.165 65.3036 103.067 65.0802 98.9664 66.9795C93.0927 69.5491 92.3169 75.2471 92.0953 81.3919C91.8736 85.9726 91.8736 91.4471 93.0927 95.9161C94.0901 99.4913 96.8607 102.284 100.518 103.066C105.173 104.184 115.147 104.407 120.023 104.295C120.466 104.295 120.91 104.295 121.353 104.295C125.232 104.184 129.332 104.184 132.879 102.843C135.871 101.837 137.644 100.05 138.753 97.8154C140.082 95.134 140.415 91.7823 140.526 88.0954C140.969 83.2912 140.858 77.8167 139.639 73.4595Z" fill="url(#paint1_linear_3831_4976)"/>
<path d="M112.131 78.3003C112.131 76.8261 112.876 76.3348 114.086 77.121C117.343 79.1847 120.693 81.3468 123.95 83.4106C125.159 84.1968 125.159 85.0812 123.95 85.9657C120.693 88.0295 117.436 90.1915 114.179 92.2553C112.876 93.0415 112.224 92.6484 112.131 91.2725C112.131 90.6829 112.131 79.6761 112.131 78.3003Z" fill="#656565"/>
<path d="M178.664 39.0683V42.9497H53.6195V39.0683C53.6195 36.1356 56.0397 33.7205 58.9784 33.7205H173.306C176.244 33.7205 178.664 36.1356 178.664 39.0683Z" fill="#3A3A3A"/>
<path d="M58.8663 40.0169C59.7708 40.0169 60.504 39.2832 60.504 38.3781C60.504 37.473 59.7708 36.7393 58.8663 36.7393C57.9618 36.7393 57.2286 37.473 57.2286 38.3781C57.2286 39.2832 57.9618 40.0169 58.8663 40.0169Z" fill="#CCCCCC"/>
<path opacity="0.6" d="M63.9516 40.0169C64.8561 40.0169 65.5893 39.2832 65.5893 38.3781C65.5893 37.473 64.8561 36.7393 63.9516 36.7393C63.0471 36.7393 62.3139 37.473 62.3139 38.3781C62.3139 39.2832 63.0471 40.0169 63.9516 40.0169Z" fill="#5F5F5F"/>
<path opacity="0.4" d="M69.1234 40.0169C70.0278 40.0169 70.761 39.2832 70.761 38.3781C70.761 37.473 70.0278 36.7393 69.1234 36.7393C68.2189 36.7393 67.4857 37.473 67.4857 38.3781C67.4857 39.2832 68.2189 40.0169 69.1234 40.0169Z" fill="#5C5C5C"/>
<defs>
<linearGradient id="paint0_linear_3831_4976" x1="116.101" y1="31.0866" x2="116.101" y2="128.669" gradientUnits="userSpaceOnUse">
<stop stop-color="#5C5C5C"/>
<stop offset="0.9964" stop-color="#4D4D4D"/>
</linearGradient>
<linearGradient id="paint1_linear_3831_4976" x1="116.373" y1="65.084" x2="116.373" y2="104.321" gradientUnits="userSpaceOnUse">
<stop stop-color="#FAFAFA"/>
<stop offset="0.828125" stop-color="#F5F2EC"/>
</linearGradient>
</defs>
</svg>
